Newaita-dark/apps/16/com.github.harisvsulaiman.pushy.svg

<svg height="16pt" viewBox="0 0 16 16" width="16pt" xmlns="http://www.w3.org/2000/svg" xmlns:xlink="http://www.w3.org/1999/xlink"><linearGradient id="a"><stop offset="0" stop-opacity=".313725"/><stop offset=".222222" stop-opacity=".27451"/><stop offset="1" stop-opacity="0"/></linearGradient><radialGradient id="b" cx="450.90894" cy="189.57936" gradientTransform="matrix(.00000009 -.0390662 -.0703192 -.00000005 22.261576 31.797666)" gradientUnits="userSpaceOnUse" r="21.166656" xlink:href="#a"/><radialGradient id="c" cx="450.90894" cy="189.57936" gradientTransform="matrix(-.00000009 .0390662 .0703192 .00000005 -6.38506 -3.763741)" gradientUnits="userSpaceOnUse" r="21.166656" xlink:href="#a"/><radialGradient id="d" cx="450.90894" cy="189.57936" gradientTransform="matrix(-.00000009 -.0390662 .0703192 -.00000005 -6.38506 31.797666)" gradientUnits="userSpaceOnUse" r="21.166656" xlink:href="#a"/><radialGradient id="e" cx="450.90894" cy="189.57936" gradientTransform="matrix(.00000009 .0390662 -.0703192 .00000005 22.261575 -3.763741)" gradientUnits="userSpaceOnUse" r="21.166656" xlink:href="#a"/><linearGradient id="f" gradientTransform="matrix(.00668003 0 0 .031253 6.232693 6.719392)" gradientUnits="userSpaceOnUse" x1="255.32306" x2="255.32304" y1="233.5" y2="254.66666"><stop offset="0" stop-opacity=".27451"/><stop offset="1" stop-opacity="0"/></linearGradient><linearGradient id="g"><stop offset="0" stop-color="#81c784"/><stop offset="1" stop-color="#66bb6a"/></linearGradient><linearGradient id="h" gradientUnits="userSpaceOnUse" x1="254" x2="254" xlink:href="#g" y1="-168.66667" y2="233.5"/><linearGradient id="i" gradientUnits="userSpaceOnUse" x1="7.9382502" x2="7.9382502" xlink:href="#g" y1="4.09414600635" y2="11.3708693"/><radialGradient id="j" cx="7.938262" cy="7.73250974997" gradientUnits="userSpaceOnUse" r="3.63836987498"><stop offset="0" stop-color="#fff" stop-opacity=".196078"/><stop offset="1" stop-color="#cbcbcb" stop-opacity="0"/></radialGradient><path d="m9.097656 14.015625h1.320313v-.660156h-1.320313zm0 0" fill="url(#b)"/><path d="m6.78125 14.015625h-1.324219v.664063h1.324219zm0 0" fill="url(#c)"/><path d="m6.78125 14.015625h-1.324219v-.660156h1.324219zm0 0" fill="url(#d)"/><path d="m9.097656 14.015625h1.320313v.664063h-1.320313zm0 0" fill="url(#e)"/><path d="m6.78125 13.851562h2.316406v.828126h-2.316406zm0 0" fill="url(#f)"/><path d="m253.975747-168.629428c111.114389 0 201.105795 89.991406 201.105795 201.105795 0 110.989401-89.991406 200.980807-201.105795 200.980807-110.989402 0-201.105796-89.991406-201.105796-200.980807 0-111.114389 90.116394-201.105795 201.105796-201.105795zm0 0" fill="url(#h)" stroke="#333" stroke-linecap="round" stroke-width="3" transform="matrix(.031253 0 0 .031253 0 6.719392)"/><path d="m7.9375 14.015625c-3.480469 0-6.285156-2.800781-6.285156-6.28125 0-.023437 0-.042969 0-.0625.035156 3.453125 2.824218 6.222656 6.285156 6.222656s6.253906-2.769531 6.285156-6.222656v.0625c0 3.480469-2.804687 6.28125-6.285156 6.28125zm0 0" fill-opacity=".196078"/><path d="m7.9375 1.449219c-3.480469 0-6.285156 2.800781-6.285156 6.285156v.058594c.035156-3.453125 2.824218-6.222657 6.285156-6.222657s6.253906 2.769532 6.285156 6.222657c0-.019531 0-.039063 0-.058594 0-3.484375-2.804687-6.285156-6.285156-6.285156zm0 0" fill="#fff" fill-opacity=".392157"/><path d="m7.9375 1.402344c-3.507812 0-6.332031 2.824218-6.332031 6.332031 0 3.503906 2.824219 6.328125 6.332031 6.328125s6.332031-2.824219 6.332031-6.328125c0-3.507813-2.824219-6.332031-6.332031-6.332031zm0 .09375c3.457031 0 6.238281 2.78125 6.238281 6.238281 0 3.453125-2.78125 6.234375-6.238281 6.234375s-6.238281-2.78125-6.238281-6.234375c0-3.457031 2.78125-6.238281 6.238281-6.238281zm0 0" fill="#212121"/><path d="m7.9375 2.441406c2.921875 0 5.292969 2.367188 5.292969 5.292969 0 2.921875-2.371094 5.289063-5.292969 5.289063s-5.292969-2.367188-5.292969-5.289063c0-2.925781 2.371094-5.292969 5.292969-5.292969zm0 0" fill="#e0e0e0"/><path d="m7.9375 4.09375c2.011719 0 3.640625 1.628906 3.640625 3.640625 0 2.007813-1.628906 3.636719-3.640625 3.636719-2.007812 0-3.636719-1.628906-3.636719-3.636719 0-2.011719 1.628907-3.640625 3.636719-3.640625zm0 0" fill="url(#i)"/><path d="m7.9375 4.136719c-1.789062 0-3.265625 1.277343-3.578125 2.972656.351563-1.640625 1.808594-2.863281 3.558594-2.863281 2.015625 0 3.636719 1.621094 3.636719 3.636718 0 .226563-.019532.449219-.058594.664063.050781-.25.082031-.507813.082031-.773437 0-2.015626-1.625-3.636719-3.640625-3.636719zm0 0" fill="#fff" fill-opacity=".392157"/><path d="m4.304688 7.898438c-.003907.054687-.003907.109374-.003907.164062 0 2.015625 1.621094 3.640625 3.636719 3.640625s3.640625-1.625 3.640625-3.640625c0-.054688-.003906-.109375-.003906-.164062-.085938 1.9375-1.675781 3.472656-3.636719 3.472656s-3.546875-1.535156-3.632812-3.472656zm0 0" fill-opacity=".235294"/><path d="m253.975747-84.012509c64.368853 0 116.488875 52.120023 116.488875 116.488876 0 64.243865-52.120022 116.363888-116.488875 116.363888-64.243865 0-116.363888-52.120023-116.363888-116.363888 0-64.368853 52.120023-116.488876 116.363888-116.488876zm0 0" fill="none" stroke="#212121" stroke-linecap="round" stroke-width="3" transform="matrix(.031253 0 0 .031253 0 6.719392)"/><path d="m7.9375 4.09375c2.011719 0 3.640625 1.628906 3.640625 3.640625 0 2.007813-1.628906 3.636719-3.640625 3.636719-2.007812 0-3.636719-1.628906-3.636719-3.636719 0-2.011719 1.628907-3.640625 3.636719-3.640625zm0 0" fill="url(#j)"/><path d="m7.9375 2.441406c-2.929688 0-5.292969 2.359375-5.292969 5.292969 0 .027344 0 .054687.003907.082031.042968-2.894531 2.386718-5.210937 5.289062-5.210937 2.90625 0 5.25 2.316406 5.292969 5.210937 0-.027344 0-.054687 0-.082031 0-2.933594-2.359375-5.292969-5.292969-5.292969zm0 0" fill="#fff" fill-opacity=".992157"/><path d="m2.648438 7.863281c0 .035157-.003907.066407-.003907.101563 0 2.933594 2.363281 5.292968 5.292969 5.292968 2.933594 0 5.292969-2.359374 5.292969-5.292968 0-.035156 0-.066406 0-.101563-.058594 2.882813-2.394531 5.1875-5.292969 5.1875-2.894531 0-5.234375-2.304687-5.289062-5.1875zm0 0" fill-opacity=".235294"/><path d="m253.975747-136.88246c93.491072 0 169.358827 75.742767 169.358827 169.358827 0 93.491072-75.867755 169.233839-169.358827 169.233839-93.491073 0-169.358828-75.742767-169.358828-169.233839 0-93.61606 75.867755-169.358827 169.358828-169.358827zm0 0" fill="none" stroke="#212121" stroke-linecap="round" stroke-width="3" transform="matrix(.031253 0 0 .031253 0 6.719392)"/></svg>

<?xml version="1.0" encoding="UTF-8"?>
<svg xmlns="http://www.w3.org/2000/svg" xmlns:xlink="http://www.w3.org/1999/xlink" width="16pt" height="16pt" viewBox="0 0 16 16" version="1.1">
<defs>
<radialGradient id="radial0" gradientUnits="userSpaceOnUse" cx="450.90894" cy="189.57936" fx="450.90894" fy="189.57936" r="21.166656" gradientTransform="matrix(0.0000000870852,-0.0390662,-0.0703192,-0.0000000507693,22.261576,31.797666)">
<stop offset="0" style="stop-color:rgb(0%,0%,0%);stop-opacity:0.313725;"/>
<stop offset="0.222222" style="stop-color:rgb(0%,0%,0%);stop-opacity:0.27451;"/>
<stop offset="1" style="stop-color:rgb(0%,0%,0%);stop-opacity:0;"/>
</radialGradient>
<radialGradient id="radial1" gradientUnits="userSpaceOnUse" cx="450.90894" cy="189.57936" fx="450.90894" fy="189.57936" r="21.166656" gradientTransform="matrix(-0.0000000870852,0.0390662,0.0703192,0.0000000507693,-6.38506,-3.763741)">
<stop offset="0" style="stop-color:rgb(0%,0%,0%);stop-opacity:0.313725;"/>
<stop offset="0.222222" style="stop-color:rgb(0%,0%,0%);stop-opacity:0.27451;"/>
<stop offset="1" style="stop-color:rgb(0%,0%,0%);stop-opacity:0;"/>
</radialGradient>
<radialGradient id="radial2" gradientUnits="userSpaceOnUse" cx="450.90894" cy="189.57936" fx="450.90894" fy="189.57936" r="21.166656" gradientTransform="matrix(-0.0000000870852,-0.0390662,0.0703192,-0.0000000507693,-6.38506,31.797666)">
<stop offset="0" style="stop-color:rgb(0%,0%,0%);stop-opacity:0.313725;"/>
<stop offset="0.222222" style="stop-color:rgb(0%,0%,0%);stop-opacity:0.27451;"/>
<stop offset="1" style="stop-color:rgb(0%,0%,0%);stop-opacity:0;"/>
</radialGradient>
<radialGradient id="radial3" gradientUnits="userSpaceOnUse" cx="450.90894" cy="189.57936" fx="450.90894" fy="189.57936" r="21.166656" gradientTransform="matrix(0.0000000870852,0.0390662,-0.0703192,0.0000000507693,22.261575,-3.763741)">
<stop offset="0" style="stop-color:rgb(0%,0%,0%);stop-opacity:0.313725;"/>
<stop offset="0.222222" style="stop-color:rgb(0%,0%,0%);stop-opacity:0.27451;"/>
<stop offset="1" style="stop-color:rgb(0%,0%,0%);stop-opacity:0;"/>
</radialGradient>
<linearGradient id="linear0" gradientUnits="userSpaceOnUse" x1="255.32306" y1="233.5" x2="255.32304" y2="254.66666" gradientTransform="matrix(0.00668003,0,0,0.031253,6.232693,6.719392)">
<stop offset="0" style="stop-color:rgb(0%,0%,0%);stop-opacity:0.27451;"/>
<stop offset="1" style="stop-color:rgb(0%,0%,0%);stop-opacity:0;"/>
</linearGradient>
<linearGradient id="linear1" gradientUnits="userSpaceOnUse" x1="254" y1="-168.66667" x2="254" y2="233.5" >
<stop offset="0" style="stop-color:rgb(50.588235%,78.039216%,51.764706%);stop-opacity:1;"/>
<stop offset="1" style="stop-color:rgb(40%,73.333333%,41.568627%);stop-opacity:1;"/>
</linearGradient>
<linearGradient id="linear2" gradientUnits="userSpaceOnUse" x1="254" y1="-168.66667" x2="254" y2="233.5" gradientTransform="matrix(0.0180938,0,0,0.0180938,3.342425,7.145967)">
<stop offset="0" style="stop-color:rgb(50.588235%,78.039216%,51.764706%);stop-opacity:1;"/>
<stop offset="1" style="stop-color:rgb(40%,73.333333%,41.568627%);stop-opacity:1;"/>
</linearGradient>
<radialGradient id="radial4" gradientUnits="userSpaceOnUse" cx="254" cy="32.416656" fx="254" fy="32.416656" r="116.41666" gradientTransform="matrix(0.031253,0,0,0.031253,0,6.719392)">
<stop offset="0" style="stop-color:rgb(100%,100%,100%);stop-opacity:0.196078;"/>
<stop offset="1" style="stop-color:rgb(79.607843%,79.607843%,79.607843%);stop-opacity:0;"/>
</radialGradient>
</defs>
<g id="surface1">
<path style=" stroke:none;fill-rule:nonzero;fill:url(#radial0);" d="M 9.097656 14.015625 L 10.417969 14.015625 L 10.417969 13.355469 L 9.097656 13.355469 Z M 9.097656 14.015625 "/>
<path style=" stroke:none;fill-rule:nonzero;fill:url(#radial1);" d="M 6.78125 14.015625 L 5.457031 14.015625 L 5.457031 14.679688 L 6.78125 14.679688 Z M 6.78125 14.015625 "/>
<path style=" stroke:none;fill-rule:nonzero;fill:url(#radial2);" d="M 6.78125 14.015625 L 5.457031 14.015625 L 5.457031 13.355469 L 6.78125 13.355469 Z M 6.78125 14.015625 "/>
<path style=" stroke:none;fill-rule:nonzero;fill:url(#radial3);" d="M 9.097656 14.015625 L 10.417969 14.015625 L 10.417969 14.679688 L 9.097656 14.679688 Z M 9.097656 14.015625 "/>
<path style=" stroke:none;fill-rule:nonzero;fill:url(#linear0);" d="M 6.78125 13.851562 L 9.097656 13.851562 L 9.097656 14.679688 L 6.78125 14.679688 Z M 6.78125 13.851562 "/>
<path style="fill-rule:nonzero;fill:url(#linear1);stroke-width:3;stroke-linecap:round;stroke-linejoin:miter;stroke:rgb(20%,20%,20%);stroke-opacity:1;stroke-miterlimit:4;" d="M 253.975747 -168.629428 C 365.090136 -168.629428 455.081542 -78.638022 455.081542 32.476367 C 455.081542 143.465768 365.090136 233.457174 253.975747 233.457174 C 142.986345 233.457174 52.869951 143.465768 52.869951 32.476367 C 52.869951 -78.638022 142.986345 -168.629428 253.975747 -168.629428 Z M 253.975747 -168.629428 " transform="matrix(0.031253,0,0,0.031253,0,6.719392)"/>
<path style=" stroke:none;fill-rule:nonzero;fill:rgb(0%,0%,0%);fill-opacity:0.196078;" d="M 7.9375 14.015625 C 4.457031 14.015625 1.652344 11.214844 1.652344 7.734375 C 1.652344 7.710938 1.652344 7.691406 1.652344 7.671875 C 1.6875 11.125 4.476562 13.894531 7.9375 13.894531 C 11.398438 13.894531 14.191406 11.125 14.222656 7.671875 C 14.222656 7.691406 14.222656 7.710938 14.222656 7.734375 C 14.222656 11.214844 11.417969 14.015625 7.9375 14.015625 Z M 7.9375 14.015625 "/>
<path style=" stroke:none;fill-rule:nonzero;fill:rgb(100%,100%,100%);fill-opacity:0.392157;" d="M 7.9375 1.449219 C 4.457031 1.449219 1.652344 4.25 1.652344 7.734375 C 1.652344 7.753906 1.652344 7.773438 1.652344 7.792969 C 1.6875 4.339844 4.476562 1.570312 7.9375 1.570312 C 11.398438 1.570312 14.191406 4.339844 14.222656 7.792969 C 14.222656 7.773438 14.222656 7.753906 14.222656 7.734375 C 14.222656 4.25 11.417969 1.449219 7.9375 1.449219 Z M 7.9375 1.449219 "/>
<path style=" stroke:none;fill-rule:nonzero;fill:rgb(12.941176%,12.941176%,12.941176%);fill-opacity:1;" d="M 7.9375 1.402344 C 4.429688 1.402344 1.605469 4.226562 1.605469 7.734375 C 1.605469 11.238281 4.429688 14.0625 7.9375 14.0625 C 11.445312 14.0625 14.269531 11.238281 14.269531 7.734375 C 14.269531 4.226562 11.445312 1.402344 7.9375 1.402344 Z M 7.9375 1.496094 C 11.394531 1.496094 14.175781 4.277344 14.175781 7.734375 C 14.175781 11.1875 11.394531 13.96875 7.9375 13.96875 C 4.480469 13.96875 1.699219 11.1875 1.699219 7.734375 C 1.699219 4.277344 4.480469 1.496094 7.9375 1.496094 Z M 7.9375 1.496094 "/>
<path style=" stroke:none;fill-rule:nonzero;fill:rgb(87.843137%,87.843137%,87.843137%);fill-opacity:1;" d="M 7.9375 2.441406 C 10.859375 2.441406 13.230469 4.808594 13.230469 7.734375 C 13.230469 10.65625 10.859375 13.023438 7.9375 13.023438 C 5.015625 13.023438 2.644531 10.65625 2.644531 7.734375 C 2.644531 4.808594 5.015625 2.441406 7.9375 2.441406 Z M 7.9375 2.441406 "/>
<path style=" stroke:none;fill-rule:nonzero;fill:url(#linear2);" d="M 7.9375 4.09375 C 9.949219 4.09375 11.578125 5.722656 11.578125 7.734375 C 11.578125 9.742188 9.949219 11.371094 7.9375 11.371094 C 5.929688 11.371094 4.300781 9.742188 4.300781 7.734375 C 4.300781 5.722656 5.929688 4.09375 7.9375 4.09375 Z M 7.9375 4.09375 "/>
<path style=" stroke:none;fill-rule:nonzero;fill:rgb(100%,100%,100%);fill-opacity:0.392157;" d="M 7.9375 4.136719 C 6.148438 4.136719 4.671875 5.414062 4.359375 7.109375 C 4.710938 5.46875 6.167969 4.246094 7.917969 4.246094 C 9.933594 4.246094 11.554688 5.867188 11.554688 7.882812 C 11.554688 8.109375 11.535156 8.332031 11.496094 8.546875 C 11.546875 8.296875 11.578125 8.039062 11.578125 7.773438 C 11.578125 5.757812 9.953125 4.136719 7.9375 4.136719 Z M 7.9375 4.136719 "/>
<path style=" stroke:none;fill-rule:nonzero;fill:rgb(0%,0%,0%);fill-opacity:0.235294;" d="M 4.304688 7.898438 C 4.300781 7.953125 4.300781 8.007812 4.300781 8.0625 C 4.300781 10.078125 5.921875 11.703125 7.9375 11.703125 C 9.953125 11.703125 11.578125 10.078125 11.578125 8.0625 C 11.578125 8.007812 11.574219 7.953125 11.574219 7.898438 C 11.488281 9.835938 9.898438 11.371094 7.9375 11.371094 C 5.976562 11.371094 4.390625 9.835938 4.304688 7.898438 Z M 4.304688 7.898438 "/>
<path style="fill:none;stroke-width:3;stroke-linecap:round;stroke-linejoin:miter;stroke:rgb(12.941176%,12.941176%,12.941176%);stroke-opacity:1;stroke-miterlimit:4;" d="M 253.975747 -84.012509 C 318.3446 -84.012509 370.464622 -31.892486 370.464622 32.476367 C 370.464622 96.720232 318.3446 148.840255 253.975747 148.840255 C 189.731882 148.840255 137.611859 96.720232 137.611859 32.476367 C 137.611859 -31.892486 189.731882 -84.012509 253.975747 -84.012509 Z M 253.975747 -84.012509 " transform="matrix(0.031253,0,0,0.031253,0,6.719392)"/>
<path style=" stroke:none;fill-rule:nonzero;fill:url(#radial4);" d="M 7.9375 4.09375 C 9.949219 4.09375 11.578125 5.722656 11.578125 7.734375 C 11.578125 9.742188 9.949219 11.371094 7.9375 11.371094 C 5.929688 11.371094 4.300781 9.742188 4.300781 7.734375 C 4.300781 5.722656 5.929688 4.09375 7.9375 4.09375 Z M 7.9375 4.09375 "/>
<path style=" stroke:none;fill-rule:nonzero;fill:rgb(100%,100%,100%);fill-opacity:0.992157;" d="M 7.9375 2.441406 C 5.007812 2.441406 2.644531 4.800781 2.644531 7.734375 C 2.644531 7.761719 2.644531 7.789062 2.648438 7.816406 C 2.691406 4.921875 5.035156 2.605469 7.9375 2.605469 C 10.84375 2.605469 13.1875 4.921875 13.230469 7.816406 C 13.230469 7.789062 13.230469 7.761719 13.230469 7.734375 C 13.230469 4.800781 10.871094 2.441406 7.9375 2.441406 Z M 7.9375 2.441406 "/>
<path style=" stroke:none;fill-rule:nonzero;fill:rgb(0%,0%,0%);fill-opacity:0.235294;" d="M 2.648438 7.863281 C 2.648438 7.898438 2.644531 7.929688 2.644531 7.964844 C 2.644531 10.898438 5.007812 13.257812 7.9375 13.257812 C 10.871094 13.257812 13.230469 10.898438 13.230469 7.964844 C 13.230469 7.929688 13.230469 7.898438 13.230469 7.863281 C 13.171875 10.746094 10.835938 13.050781 7.9375 13.050781 C 5.042969 13.050781 2.703125 10.746094 2.648438 7.863281 Z M 2.648438 7.863281 "/>
<path style="fill:none;stroke-width:3;stroke-linecap:round;stroke-linejoin:miter;stroke:rgb(12.941176%,12.941176%,12.941176%);stroke-opacity:1;stroke-miterlimit:4;" d="M 253.975747 -136.88246 C 347.466819 -136.88246 423.334574 -61.139693 423.334574 32.476367 C 423.334574 125.967439 347.466819 201.710206 253.975747 201.710206 C 160.484674 201.710206 84.616919 125.967439 84.616919 32.476367 C 84.616919 -61.139693 160.484674 -136.88246 253.975747 -136.88246 Z M 253.975747 -136.88246 " transform="matrix(0.031253,0,0,0.031253,0,6.719392)"/>
</g>
</svg>
